svg/u26F3.svg

<svg viewBox="0 0 2600 2760.837" xmlns="http://www.w3.org/2000/svg"><path d="M2133.5 2459.5q-70.5 71.5-170.5 71.5t-170.5-71.5-70.5-169.5q0-99 70.5-170.5t170.5-71.5 170.5 71.5 70.5 170.5q0 98-70.5 169.5z m-331.5-846.5q-48 105-142.5 376t-268.5 396-436 125q-330 0-526.5-157t-196.5-436q0-212 154.5-320.5t441.5-108.5q97 0 172.5 8.5t136.5 20.5l104 20q46 9 91 9 67 0 105-17t65.5-45.5 92.5-146.5l202-368q4-6 11-7l16-3 300-648h243l-334 728q3 3 5.5 7.5t2.5 10.5v4q0 3-1 5z m-461 188q-139-76-370-76-212 0-354 87.5t-142 244.5q0 102 79 192t190 119.5 218 29.5q222 0 370-118.5t148-262.5q0-140-139-216z"/></svg>

<svg viewBox="0 0 2600 2760.837" xmlns="http://www.w3.org/2000/svg"><path d="M2133.5 2459.5Q2063 2531 1963 2531t-170.5-71.5T1722 2290q0-99 70.5-170.5T1963 2048t170.5 71.5T2204 2290q0 98-70.5 169.5zM1802 1613q-48 105-142.5 376T1391 2385t-436 125q-330 0-526.5-157T232 1917q0-212 154.5-320.5T828 1488q97 0 172.5 8.5T1137 1517l104 20q46 9 91 9 67 0 105-17t65.5-45.5T1595 1337l202-368q4-6 11-7l16-3 300-648h243l-334 728q3 3 5.5 7.5t2.5 10.5v4q0 3-1 5zm-461 188q-139-76-370-76-212 0-354 87.5T475 2057q0 102 79 192t190 119.5 218 29.5q222 0 370-118.5t148-262.5q0-140-139-216z"/></svg>
